resources/svg/install.svg

<svg viewBox="0 0 24 24"><path fill="none" stroke="currentColor" stroke-width="2" d="M19 13.5v4L12 22l-7-4.5v-4m7 8.5v-8.5m6.5-5l-6.5-4L15.5 2L22 6l-3.5 2.5h0zm-13 0l6.5-4L8.5 2L2 6l3.5 2.5h0zm13 .5L12 13l3.5 2.5l6.5-4L18.5 9h0zm-13 0l6.5 4l-3.5 2.5l-6.5-4L5.5 9h0z"/></svg>

<svg xmlns="http://www.w3.org/2000/svg" viewBox="0 0 24 24" fill="currentColor"><path fill="none" stroke="currentColor" stroke-width="2" d="M19,13.5 L19,17.5 L12,22 L5,17.5 L5,13.5 M12,22 L12,13.5 M18.5,8.5 L12,4.5 L15.5,2 L22,6 L18.5,8.5 L18.5,8.5 L18.5,8.5 Z M5.5,8.5 L12,4.5 L8.5,2 L2,6 L5.5,8.5 L5.5,8.5 L5.5,8.5 Z M18.5,9 L12,13 L15.5,15.5 L22,11.5 L18.5,9 L18.5,9 L18.5,9 Z M5.5,9 L12,13 L8.5,15.5 L2,11.5 L5.5,9 L5.5,9 Z"/></svg>
